release/datafiles/colormanagement/luts/Inverse_AgX_Base_Rec2020.cube
TITLE "Inverse AgX_Formation Rec.2020"
# Inverse of AgX Base Rec.2020 Formation LUT
# This LUT expects input to be Rec.2020 power 2.4, output to be Rec.2020 Log2 from -10 stops to +6.5 stops
DOMAIN_MIN 0 0 0
DOMAIN_MAX 1 1 1
LUT_3D_SIZE 9
0 0 0
0.3644775 0.0770674 0.1342251
0.4877873 0.0736869 0.2152098
0.5604997 0.098457 0.2805698
0.6148563 0 0.3213044
0.666896 0 0.2949608
0.7289301 0 0
0.8121104 0 0
0.9431571 0 0
0.0959399 0.372108 0.1337562
0.3616865 0.3678031 0.1535471
0.4870236 0.3579407 0.2200174
0.5601925 0.3504765 0.2823453
0.6147323 0.3367824 0.3219841
0.666907 0.0201933 0.2943196
0.7290408 0 0
0.8123183 0 0
0.943521 0 0
0.1375198 0.4956582 0.2147589
0.3557232 0.4945087 0.2188882
0.4848115 0.4911024 0.2467621
0.5591703 0.4854957 0.2931568
0.6142994 0.4798734 0.3263309
0.6669848 0.4623925 0.2924554
0.7295191 0.1274901 0
0.8132049 0 0
0.9450772 0 0
0.1886011 0.5683745 0.2793789
0.3540302 0.5679064 0.2807581
0.4809666 0.5663441 0.2919856
0.5576475 0.5639608 0.3149006
0.6136462 0.5610563 0.3365742
0.6672257 0.5572895 0.2895022
0.730503 0.5344662 0
0.814995 0 0
0.9482382 0 0
0.2081656 0.6225559 0.3230776
0.3521044 0.6223572 0.3234635
0.4780104 0.6216637 0.327519
0.5558886 0.6205986 0.3379023
0.6127789 0.619178 0.349149
0.6676601 0.6210347 0.2769546
0.7320556 0.6208835 0
0.8178235 0.5830446 0
0.9533079 0 0
0 0.673836 0.3255952
0.302501 0.6738273 0.3248203
0.4689205 0.6738453 0.3226907
0.5545205 0.6740284 0.3194223
0.6154298 0.6744431 0.3055163
0.6678725 0.6745727 0.1464151
0.7339897 0.6843834 0
0.8217069 0.6910829 0
0.9605567 0 0
0 0.7344778 0
0 0.7346072 0
0.3979245 0.7351736 0
0.5428172 0.7363649 0
0.618196 0.7382915 0
0.6781524 0.7407448 0
0.7355354 0.7427507 0
0.826398 0.7656903 0
0.9702108 0.7873324 0
0 0.8148037 0
0 0.8150592 0
0 0.8161509 0
0.3541033 0.8183693 0
0.6024752 0.8219112 0
0.6891575 0.8268286 0
0.7587128 0.8328523 0
0.8305448 0.8383196 0
0.982224 0.8936401 0
0 0.9384931 0
0 0.938934 0
0 0.9408206 0
0 0.9446626 0
0 0.9508569 0
0.6454338 0.9597776 0
0.7905069 0.9717737 0
0.8860259 0.9869074 0
0.9941043 1 0
0 0 0.3619019
0.3621004 0 0.3598499
0.4872587 0 0.3605219
0.5602924 0 0.371123
0.6147573 0 0.3844625
0.6668537 0 0.3720957
0.7289228 0 0
0.8121297 0 0
0.943207 0 0
0.0389272 0.3636831 0.3605736
0.359355 0.359355 0.359355
0.4864373 0.3513927 0.3622323
0.5599508 0.3448554 0.3732298
0.6146228 0.3295311 0.3855408
0.6668762 0 0.3698189
0.7290596 0 0
0.8123648 0 0
0.9435879 0 0
0.1082639 0.4938755 0.3617397
0.3552864 0.4926279 0.3629409
0.4842913 0.4893283 0.3656083
0.5589409 0.4841885 0.3759262
0.6141936 0.4784568 0.3870259
0.6669565 0.4594664 0.3686076
0.7295403 0 0
0.8132539 0 0
0.9451466 0 0
0.174899 0.5676762 0.3720488
0.3545067 0.5671458 0.3739657
0.480901 0.5656102 0.3761438
0.5574464 0.5632778 0.3831702
0.6135476 0.5604499 0.3912453
0.6672 0.5562989 0.3665615
0.7305266 0.5316485 0
0.8150474 0 0
0.9483118 0 0
0.197967 0.6222112 0.3864623
0.3519342 0.6219896 0.3875583
0.4778896 0.6213053 0.3885543
0.5557602 0.6202578 0.3923899
0.6126876 0.6188542 0.3969646
0.6676348 0.6206036 0.3603586
0.7320793 0.6198893 0
0.8178781 0.5789046 0
0.953386 0 0
0 0.6736591 0.3869339
0.2959378 0.6736638 0.3853812
0.4678392 0.6736874 0.3837264
0.5540734 0.6738788 0.3810349
0.615232 0.6742999 0.3729174
0.667841 0.6744262 0.3272266
0.7340089 0.684013 0
0.821761 0.6899502 0
0.9606383 0 0
0 0.7343979 0.1763883
0 0.7345655 0
0.3895528 0.7351365 0
0.5411403 0.7363335 0
0.6175131 0.7382635 0
0.6779017 0.7407144 0
0.7355408 0.7427054 0
0.8264464 0.7653404 0
0.9702937 0.785636 0
0 0.8147869 0
0 0.8150844 0
0 0.8161801 0
0.3020149 0.8184039 0
0.5999555 0.8219498 0
0.6882639 0.8268681 0
0.7584251 0.8328864 0
0.8305772 0.838335 0
0.9823044 0.893261 0
0 0.9385268 0
0 0.9389954 0
0 0.9408856 0
0 0.9447333 0
0 0.9509333 0
0.638735 0.9598585 0
0.7892135 0.9718564 0
0.8856915 0.9869873 0
0.994172 1 0
0 0 0.4851061
0.352242 0 0.4842949
0.4853236 0 0.4830035
0.5594964 0 0.4815255
0.6143635 0 0.4829768
0.6666808 0 0.4802014
0.7288919 0 0.4288673
0.81221 0 0
0.9434181 0 0
0 0.3251896 0.484547
0.3515673 0.3225618 0.4837707
0.4845282 0.311563 0.4827002
0.5591598 0.304228 0.4818566
0.6142306 0.280603 0.4832242
0.6667044 0 0.4794694
0.7290297 0 0.4226792
0.8124463 0 0
0.9438003 0 0
0 0.4869815 0.4837772
0.3473082 0.4857585 0.483234
0.4823972 0.4823972 0.4823972
0.5580985 0.4781984 0.482755
0.6137961 0.4716265 0.4835596
0.6668559 0.4450409 0.4755065
0.7296358 0 0.3883576
0.8134616 0 0
0.9454389 0 0
0.089505 0.5649365 0.4825374
0.346898 0.5644115 0.4827477
0.4799978 0.5627748 0.483248
0.5566648 0.5605327 0.4835886
0.6131667 0.557745 0.4840264
0.6671078 0.5517571 0.474242
0.7306326 0.5182643 0.3712317
0.8152702 0 0
0.9486226 0 0
0.1408909 0.6208247 0.484481
0.3442143 0.6206052 0.4846999
0.4765504 0.6199007 0.4848607
0.5550448 0.6188913 0.4848288
0.6123185 0.6175184 0.4847983
0.667539 0.6186929 0.4714765
0.7321856 0.6154227 0.3231922
0.8181117 0.5586211 0
0.9537172 0 0
0 0.6729293 0.4853693
0.2792479 0.6729365 0.4847614
0.4622674 0.6730627 0.4813264
0.5519031 0.6732792 0.479501
0.6143179 0.6737141 0.4755934
0.6677114 0.6738112 0.461982
0.7340943 0.6823771 0
0.8219931 0.6848906 0
0.9609861 0 0
0 0.7340582 0.4635336
0 0.7342289 0.4597803
0.3394301 0.7349923 0.4408564
0.533416 0.7362115 0.4303326
0.6144518 0.7381535 0.4046061
0.6767881 0.7405907 0.2811872
0.735564 0.742512 0
0.8266549 0.7638018 0
0.9706484 0.7779639 0
0 0.8147081 0
0 0.8150088 0
0 0.8163041 0
0 0.8185514 0
0.5883419 0.8221157 0
0.6843092 0.8270379 0
0.757162 0.8330334 0
0.8307154 0.8383996 0
0.9826484 0.8916012 0
0 0.9386632 0
0 0.9391351 0
0 0.9411575 0
0 0.9450301 0
0 0.9512564 0
0.6029211 0.9602024 0
0.7834497 0.9722096 0
0.8842296 0.9873291 0
0.9944616 1 0
0 0 0.5577211
0.3360946 0 0.5573403
0.4799797 0 0.5564929
0.5580435 0 0.5557147
0.6136298 0 0.5553148
0.6663499 0 0.5565459
0.728827 0 0.5487116
0.812363 0 0.3907825
0.9438364 0 0
0 0.1279984 0.5574572
0.3377586 0.1359593 0.557034
0.4799225 0 0.5562624
0.5577191 0 0.5555838
0.6134998 0 0.5553501
0.6663747 0 0.556258
0.728966 0 0.5471673
0.8126009 0 0.3555528
0.9442207 0 0
0 0.4710744 0.5568991
0.3336385 0.4707231 0.5565555
0.4791185 0.4687278 0.5557859
0.5566812 0.4640085 0.5552983
0.6130718 0.4562541 0.5553268
0.6665301 0.4214602 0.5547443
0.729577 0 0.5399582
0.8136232 0 0
0.9458684 0 0
0 0.5596777 0.5564607
0.3317014 0.5591714 0.5562233
0.4766666 0.5575519 0.5556415
0.5552473 0.5552473 0.5552473
0.6124938 0.5517359 0.5548228
0.6669764 0.5407019 0.5502958
0.730867 0.4802676 0.520997
0.8157167 0 0
0.9492351 0 0
0 0.6181696 0.5562617
0.3281617 0.6179536 0.5562564
0.4730547 0.6172535 0.5560702
0.5531191 0.616312 0.5553168
0.6116182 0.6148942 0.5547513
0.6673832 0.6143727 0.5488637
0.7324202 0.6049326 0.5140641
0.8185853 0.4916885 0
0.9543767 0 0
0 0.6715051 0.5587156
0.2341837 0.6715145 0.558454
0.4576187 0.6716479 0.5570397
0.5463121 0.6721693 0.5528203
0.6121096 0.6725928 0.5507424
0.6674561 0.6725715 0.5446321
0.7342806 0.6787129 0.4972039
0.8224678 0.6732386 0
0.9616854 0 0
0 0.7333676 0.5581124
0 0.7335414 0.5568297
0.3112632 0.7343185 0.5508925
0.5139418 0.7360018 0.53555
0.6073433 0.7379612 0.5284864
0.6742655 0.7403557 0.5103245
0.7356072 0.7421053 0.4393524
0.8270806 0.7604267 0
0.971367 0.7597825 0
0 0.8145225 0.5165203
0 0.8148278 0.5099747
0 0.8161422 0.4750071
0 0.8188454 0
0.5584535 0.8224521 0
0.6754115 0.8273858 0
0.7544018 0.8333313 0
0.8309901 0.8385137 0
0.9833485 0.8880032 0
0 0.9389109 0
0 0.939388 0
0 0.941433 0
0 0.9456079 0
0 0.9518945 0
0 0.9608908 0
0.7703467 0.9729228 0
0.8810835 0.9880223 0
0.9950488 1 0
0 0 0.6112693
0.3096508 0 0.6110905
0.4742477 0 0.6106754
0.5555124 0 0.6103185
0.6124984 0 0.6101526
0.6658265 0 0.6138208
0.7287061 0 0.6189854
0.8125813 0 0.6074938
0.9444814 0 0
0 0 0.6111479
0.3128035 0 0.6109355
0.4745371 0 0.6105524
0.555406 0 0.610244
0.6123724 0 0.6101213
0.6658519 0 0.6137454
0.7288453 0 0.6184204
0.8128204 0 0.605071
0.9448682 0 0
0 0.4448023 0.6108813
0.307163 0.4449611 0.6107023
0.4739969 0.4428405 0.6103124
0.5547365 0.4361631 0.610104
0.6119505 0.4253412 0.6100796
0.6660066 0.3615131 0.61335
0.7294573 0 0.6158509
0.8138485 0 0.593801
0.9465273 0 0
0 0.550595 0.6106932
0.3035425 0.5503679 0.610565
0.4712912 0.5491511 0.6102744
0.5530077 0.5463144 0.6101788
0.6113594 0.5423287 0.6102057
0.666443 0.5284316 0.6121587
0.7307482 0.4448322 0.6096005
0.8159554 0 0.5638408
0.9499186 0 0
0 0.6139314 0.6106963
0.2962816 0.6137203 0.6106177
0.4674398 0.6130116 0.6104354
0.5507964 0.6119931 0.6104026
0.6104671 0.6104671 0.6104671
0.6671728 0.6053947 0.6085527
0.7328077 0.5820837 0.5954326
0.8193188 0 0.4577813
0.9553901 0 0
0 0.6692232 0.6145716
0 0.6692319 0.6144961
0.4496908 0.6693562 0.6141094
0.5433579 0.6698394 0.6129775
0.6072012 0.6707805 0.6094175
0.6669912 0.6703914 0.6069726
0.7345699 0.6715853 0.590326
0.8232122 0.6492102 0.3053358
0.9627819 0 0
0 0.7322213 0.6220967
0 0.7323956 0.621599
0.2227413 0.7331736 0.6193455
0.5080573 0.7348574 0.6138568
0.5925518 0.7376395 0.6010593
0.6693747 0.7399137 0.5948554
0.735619 0.7412885 0.575942
0.8277477 0.7541952 0
0.9725126 0.7178454 0
0 0.8141627 0.6249312
0 0.8144712 0.623135
0 0.8157999 0.6150111
0 0.8185362 0.5949381
0.4642203 0.8229455 0.5418099
0.6580981 0.8278991 0.5039962
0.749412 0.8337533 0
0.8313983 0.8386091 0
0.9844754 0.881374 0
0 0.9392445 0.4100432
0 0.9397274 0.1236331
0 0.9417974 0
0 0.9460279 0
0 0.9528556 0
0 0.9619544 0
0.743507 0.9740477 0
0.8753651 0.9891292 0
0.9959834 1 0
0 0 0.6598338
0.2327476 0 0.6598148
0.467349 0 0.6598998
0.5547979 0 0.6603451
0.6145976 0 0.6613129
0.6649517 0 0.6625455
0.7284336 0 0.6743708
0.8128189 0 0.6884451
0.945352 0 0.6586593
0 0 0.6598296
0.2328987 0 0.6598022
0.467118 0 0.6599053
0.5545633 0 0.6603776
0.6144649 0 0.6613709
0.6649755 0 0.6626172
0.7285714 0 0.6742586
0.8130582 0 0.6876969
0.9457413 0 0.652775
0 0.381552 0.6599305
0.2099092 0.3801075 0.6599213
0.464036 0.3666182 0.6600827
0.5530793 0.3418909 0.6606235
0.6138321 0.2745376 0.6616828
0.665119 0 0.6629568
0.7291758 0 0.6737422
0.8140876 0 0.6843687
0.9474113 0 0.621824
0 0.5383547 0.6603303
0.1689975 0.5379296 0.6603488
0.4599006 0.5353817 0.6605774
0.5487333 0.5281583 0.6613627
0.6122408 0.520974 0.6624814
0.6655163 0.5042864 0.6637308
0.7304481 0.2893035 0.6724229
0.8161983 0 0.6766832
0.9508275 0 0.4388289
0 0.610731 0.6611545
0 0.6105274 0.6612018
0.452973 0.6095843 0.6615028
0.5454662 0.607325 0.6623549
0.6081514 0.6016886 0.6639186
0.6661382 0.595444 0.6649662
0.7324678 0.56437 0.6692408
0.8195713 0 0.6607619
0.9563458 0 0
0 0.6655472 0.66225
0 0.6655476 0.6623179
0.4352558 0.6656238 0.6626679
0.5383197 0.6659687 0.6635312
0.604633 0.6665641 0.6649603
0.6658833 0.6658833 0.6658833
0.7347962 0.6575754 0.661908
0.824198 0.5887645 0.6238156
0.9642875 0 0
0 0.7303107 0.6744212
0 0.7304793 0.6743411
0 0.7312315 0.6739757
0.4971843 0.7328553 0.6730042
0.5883589 0.7355193 0.6703599
0.6604547 0.7386996 0.6634411
0.7353806 0.7393848 0.658086
0.8286388 0.7425071 0.6036709
0.974136 0.4707575 0
0 0.8134612 0.6923861
0 0.8137693 0.6917705
0 0.8150976 0.6890664
0 0.8178372 0.6828949
0.4281874 0.8222633 0.6699978
0.6223061 0.8284009 0.6403748
0.7405019 0.8341355 0.6205841
0.8318717 0.8384463 0.4980354
0.9860981 0.8690473 0
0 0.9395964 0.7059871
0 0.9400838 0.7032015
0 0.9421745 0.6902519
0 0.9464538 0.6553944
0 0.9533783 0.5019526
0 0.9633654 0
0.6750731 0.975605 0
0.8649948 0.9906946 0
0.9972944 1 0
0 0 0.7152649
0 0 0.7153756
0.4514211 0 0.7159166
0.5557817 0 0.7171476
0.6212129 0 0.719251
0.6749888 0 0.7221686
0.7277438 0 0.7252247
0.8129436 0 0.7501829
0.946412 0 0.7859563
0 0 0.7153575
0 0 0.7154844
0.448401 0 0.7160383
0.5546933 0 0.7172849
0.6207284 0 0.7194019
0.674865 0 0.7223267
0.7278767 0 0.7253794
0.8131812 0 0.7500742
0.946803 0 0.7849313
0 0 0.7158011
0 0 0.71594
0.4336332 0 0.7166217
0.5497222 0 0.7179186
0.6185687 0 0.7200789
0.6743193 0 0.7230235
0.728459 0 0.7260521
0.8142031 0 0.7495872
0.9484811 0 0.7803443
0 0.510698 0.7167944
0 0.5083469 0.7169488
0.423251 0.4972281 0.7176778
0.5374845 0.4658822 0.719325
0.6135063 0.437473 0.7215467
0.673019 0.3182309 0.7245031
0.7296781 0 0.7274481
0.8162986 0 0.7484131
0.9519158 0 0.7696696
0 0.6072351 0.7184771
0 0.6065201 0.7186466
0.4015965 0.6033336 0.7194215
0.5312476 0.5957753 0.7211304
0.6021665 0.5779564 0.7240119
0.669959 0.5639371 0.7269361
0.7315883 0.520049 0.7296544
0.8196462 0 0.7458503
0.9574711 0 0.7467413
0 0.6704173 0.7208236
0 0.6702517 0.721004
0.3288559 0.6695378 0.7218099
0.5173395 0.6678828 0.723547
0.5961806 0.663977 0.7264213
0.6627468 0.6542467 0.7300911
0.7337188 0.6431627 0.732354
0.8242397 0.5255023 0.7400503
0.9654852 0 0.6827642
0 0.7267984 0.7233813
0 0.7269508 0.7235647
0 0.7276294 0.7243712
0.473914 0.7290843 0.726071
0.5801625 0.7314121 0.7287974
0.6567283 0.7339836 0.732127
0.7341762 0.7341762 0.7341762
0.8296002 0.7162743 0.7242157
0.9762472 0 0
0 0.8120053 0.7486217
0 0.812307 0.7485737
0 0.8136087 0.7483622
0 0.8162953 0.7477973
0.1992017 0.8206367 0.7462351
0.6125057 0.8266616 0.7418917
0.7225678 0.8338628 0.7278056
0.8321298 0.8371869 0.712403
0.9882867 0.842421 0
0 0.939807 0.7911522
0 0.9402962 0.7904233
0 0.9423963 0.7872193
0 0.9467012 0.7799599
0 0.9536856 0.7649621
0 0.9638073 0.7287806
0 0.977507 0.4059618
0.8438374 0.9927041 0
0.9989642 1 0
0 0 0.7861533
0 0 0.7863802
0.3463627 0 0.787368
0.5520144 0 0.7894273
0.6323555 0 0.792796
0.6930551 0 0.797588
0.7499702 0 0.8036398
0.8125088 0 0.8098587
0.9475025 0 0.8641319
0 0 0.7863339
0 0 0.7865882
0.3073024 0 0.7875871
0.5483462 0 0.7896578
0.6308937 0 0.7930357
0.692475 0 0.7978336
0.7498817 0 0.8038873
0.8127406 0 0.8100983
0.9478938 0 0.8640734
0 0 0.7871176
0 0 0.7873814
0 0 0.7885338
0.5324127 0 0.7906505
0.6246938 0 0.7940671
0.6900037 0 0.7988909
0.7495017 0 0.8049521
0.8137373 0 0.8111276
0.9495734 0 0.8638049
0 0 0.7887435
0 0 0.7890181
0 0 0.7902113
0.4911175 0 0.7926947
0.61095 0 0.7961893
0.6846389 0 0.8010662
0.7486202 0 0.8071408
0.8157782 0 0.8132334
0.9530128 0 0.8631134
0 0.58947 0.7913917
0 0.5864697 0.791676
0 0.5732197 0.7929075
0.4688393 0.5389876 0.7954624
0.580792 0.3831901 0.79963
0.6739218 0 0.8045936
0.7466264 0 0.8106761
0.8190283 0 0.8165971
0.9585804 0 0.8614152
0 0.6769134 0.7951514
0 0.6760614 0.7954432
0 0.672442 0.7967048
0.3963691 0.6644702 0.7993162
0.5661685 0.6475885 0.80357
0.6514306 0.6057137 0.8095332
0.741956 0.5598573 0.8156277
0.8234606 0 0.8212485
0.9666234 0 0.8568232
0 0.7429672 0.7999088
0 0.7428566 0.8002052
0 0.7423967 0.8014846
0 0.7413607 0.8041262
0.5218756 0.7389509 0.8084119
0.6385969 0.7329554 0.8144131
0.7288346 0.714491 0.8217736
0.8285315 0.6858708 0.8268262
0.9774564 0 0.8428314
0 0.8084817 0.8049223
0 0.8087643 0.8052162
0 0.8099835 0.8064828
0 0.8124961 0.8090869
0 0.8165316 0.8132752
0.5870903 0.8220548 0.819087
0.7152278 0.8283591 0.8260565
0.8308498 0.8308498 0.8308498
0.9910072 0.7413436 0.7817047
0 0.939384 0.8581326
0 0.9398701 0.8581735
0 0.9419581 0.8583486
0 0.9462435 0.858623
0 0.9532092 0.8586123
0 0.9633344 0.8568297
0 0.9771196 0.8478178
0.7820103 0.994716 0.8014838
1 1 0.4324924
0 0 0.8892814
0 0 0.8896574
0 0 0.8912645
0.4618061 0 0.8945519
0.6439541 0 0.8998871
0.7258453 0 0.9076006
0.7931174 0 0.9179707
0.8612433 0 0.9310532
0.9477586 0 0.9450058
0 0 0.8895769
0 0 0.8899768
0 0 0.8915942
0.4206398 0 0.8948932
0.6392737 0 0.9002391
0.7240853 0 0.9079628
0.7924948 0 0.9183435
0.8612343 0 0.9314372
0.9481456 0 0.9453944
0 0 0.8908385
0 0 0.891247
0 0 0.892992
0 0 0.8963413
0.6183903 0 0.9017374
0.71658 0 0.9095101
0.7898465 0 0.919941
0.8611973 0 0.9330845
0.9498074 0 0.9470627
0 0 0.8934119
0 0 0.893831
0 0 0.8956199
0 0 0.8992646
0.5610598 0 0.904771
0.700112 0 0.9126566
0.7842049 0 0.9232019
0.8610579 0 0.9364563
0.9532102 0 0.9504787
0 0 0.8975714
0 0 0.8980009
0 0 0.8998369
0 0 0.9035811
0 0 0.9096304
0.664915 0 0.9177194
0.7734302 0 0.9284703
0.8604586 0 0.9419171
0.9587167 0 0.9560093
0 0.6637784 0.9035536
0 0.6591909 0.9039936
0 0.6378422 0.9058783
0 0.571522 0.90973
0 0 0.9159675
0.5492337 0 0.9249545
0.7513732 0 0.9360535
0.8581717 0 0.9498173
0.9666619 0 0.964
0 0.7683831 0.9115408
0 0.767365 0.9119921
0 0.7630204 0.9139284
0 0.7535097 0.9178946
0 0.7337181 0.9243321
0 0.6825446 0.9336485
0.6886532 0 0.9462319
0.849977 0 0.9605227
0.9773265 0 0.9747666
0 0.8475626 0.9215345
0 0.8475395 0.9219978
0 0.8474578 0.9239878
0 0.8472423 0.9280708
0 0.8463968 0.934708
0 0.8432031 0.9443457
0.6138846 0.8312125 0.9574492
0.8161098 0.7703981 0.9742059
0.9905438 0 0.9883033
0 0.9359183 0.9322434
0 0.9363867 0.9327143
0 0.9384003 0.934738
0 0.9425349 0.9388923
0 0.949253 0.9456442
0 0.958994 0.955447
0 0.972156 0.9687436
0.7410688 0.9885992 0.9856018
1 1 1
