release/datafiles/colormanagement/luts/Inverse_AgX_Base_Rec2020.cube
TITLE "Inverse AgX_Formation Rec.2020"
# Inverse of AgX Base Rec.2020 Formation LUT
# This LUT expects input to be Rec.2020 power 2.4, output to be Rec.2020 Log2 from -10 stops to +6.5 stops
DOMAIN_MIN 0 0 0
DOMAIN_MAX 1 1 1
LUT_3D_SIZE 57
0 0 0
0.0993048 0.0279241 0.0317898
0.1706239 0.0474266 0.0566082
0.2255975 0.060663 0.0766314
0.2698237 0.0692061 0.093441
0.3064931 0.0742179 0.1081632
0.3376017 0.0765942 0.1215824
0.3644775 0.0770674 0.1342251
0.388045 0.076273 0.1464214
0.4089707 0.0747956 0.1583578
0.4277496 0.0731757 0.1701164
0.4447578 0.0719098 0.1817137
0.4602874 0.0714074 0.1931249
0.4745688 0.0719586 0.2043068
0.4877873 0.0736869 0.2152098
0.5000935 0.0765361 0.2257862
0.5116113 0.0802926 0.2359952
0.5224445 0.0846116 0.2458025
0.5326804 0.0890813 0.2551827
0.5423933 0.0932333 0.2641149
0.5516478 0.0965489 0.2725817
0.5604997 0.098457 0.2805698
0.5689987 0.0982284 0.2880653
0.577189 0.0948176 0.2950527
0.585111 0.0864558 0.301512
0.5928024 0.0695161 0.3074163
0.6002992 0.0339319 0.3127272
0.6076374 0 0.3173865
0.6148563 0 0.3213044
0.6220103 0 0.3243016
0.6291975 0 0.3259711
0.6364687 0 0.3259582
0.6438512 0 0.3238345
0.6513686 0 0.3189245
0.6590428 0 0.3100582
0.666896 0 0.2949608
0.6749502 0 0.2682826
0.6832289 0 0.211296
0.6917568 0 0
0.7005604 0 0
0.7096687 0 0
0.7191135 0 0
0.7289301 0 0
0.7391576 0 0
0.7498404 0 0
0.7610285 0 0
0.7727788 0 0
0.7851567 0 0
0.7982379 0 0
0.8121104 0 0
0.8268773 0 0
0.8426605 0 0
0.859606 0 0
0.8778886 0 0
0.897722 0 0
0.9193689 0 0
0.9431571 0 0
0.0272532 0.1042366 0.0301685
0.0969407 0.1003145 0.0376027
0.1696744 0.0985172 0.057785
0.2252022 0.099299 0.0769975
0.2696306 0.1007281 0.0936058
0.3063851 0.1015828 0.1082621
0.3375347 0.1014801 0.1216548
0.3644325 0.1004691 0.1342841
0.3880129 0.0987915 0.1464733
0.4089467 0.0967746 0.1584045
0.427731 0.094776 0.1701591
0.444743 0.0931443 0.1817521
0.4602754 0.0921867 0.19316
0.4745589 0.0921219 0.2043383
0.487779 0.0930539 0.2152385
0.5000864 0.0949508 0.2258118
0.5116052 0.0976576 0.2360183
0.5224392 0.100908 0.2458231
0.5326758 0.1043588 0.2552011
0.5423893 0.1076133 0.2641314
0.5516443 0.1102156 0.2725964
0.5604966 0.1116489 0.280583
0.568996 0.1112649 0.2880771
0.5771866 0.1081534 0.2950632
0.5851089 0.1008419 0.3015213
0.5928006 0.0864947 0.3074245
0.6002975 0.058084 0.3127343
0.607636 0 0.3173927
0.6148551 0 0.3213096
0.6220093 0 0.324306
0.6291967 0 0.3259743
0.6364681 0 0.3259602
0.6438508 0 0.3238352
0.6513683 0 0.3189236
0.6590428 0 0.3100551
0.6668961 0 0.2949543
0.6749505 0 0.2682693
0.6832293 0 0.2112609
0.6917573 0 0
0.7005611 0 0
0.7096695 0 0
0.7191144 0 0
0.7289311 0 0
0.7391588 0 0
0.7498417 0 0
0.7610299 0 0
0.7727803 0 0
0.7851584 0 0
0.7982397 0 0
0.8121123 0 0
0.8268794 0 0
0.8426628 0 0
0.8596084 0 0
0.8778913 0 0
0.8977249 0 0
0.9193721 0 0
0.9431605 0 0
0.0475508 0.1769863 0.0544017
0.0969618 0.1754861 0.0558314
0.1678891 0.1725686 0.0658987
0.2241098 0.1702983 0.0803664
0.2689906 0.1678492 0.0951693
0.3059903 0.1653289 0.1091027
0.3372757 0.1627207 0.1221792
0.3642528 0.1600194 0.1346566
0.3878821 0.1572746 0.1467638
0.4088477 0.1545878 0.1586455
0.4276537 0.1520932 0.1703663
0.4446812 0.1499355 0.1819342
0.4602247 0.1482494 0.1933211
0.4745168 0.1471377 0.204482
0.4877435 0.1466539 0.215366
0.5000562 0.1467932 0.225926
0.5115793 0.147484 0.23612
0.5224168 0.1485944 0.245914
0.5326562 0.1499327 0.255282
0.5423722 0.1512582 0.2642034
0.5516293 0.1522761 0.2726608
0.5604834 0.1526357 0.2806403
0.5689843 0.151899 0.2881284
0.5771763 0.1494811 0.2951085
0.5850998 0.1445301 0.3015614
0.5927926 0.1356332 0.3074602
0.6002905 0.1200536 0.3127653
0.6076299 0.091049 0.3174199
0.6148498 0.0207764 0.3213325
0.6220049 0 0.3243248
0.6291933 0 0.3259884
0.6364655 0 0.3259691
0.643849 0 0.3238387
0.6513673 0 0.3189197
0.6590425 0 0.3100421
0.6668964 0 0.2949264
0.6749515 0 0.2682126
0.683231 0 0.2111112
0.6917595 0 0
0.7005639 0 0
0.7096729 0 0
0.7191183 0 0
0.7289355 0 0
0.7391637 0 0
0.7498472 0 0
0.7610359 0 0
0.7727869 0 0
0.7851655 0 0
0.7982474 0 0
0.8121207 0 0
0.8268884 0 0
0.8426725 0 0
0.8596189 0 0
0.8779026 0 0
0.8977372 0 0
0.9193854 0 0
0.9431751 0 0
0.0627184 0.232548 0.0744404
0.0995422 0.2319247 0.0747436
0.1669637 0.2302267 0.0789361
0.2228296 0.2281475 0.0882858
0.2680887 0.2262128 0.0996487
0.3053682 0.2238491 0.1117444
0.3368364 0.2212428 0.1238494
0.3639324 0.2185259 0.1357972
0.3876408 0.2158006 0.147601
0.4086608 0.2131559 0.1592966
0.4275053 0.2106752 0.170896
0.4445609 0.2084351 0.1823776
0.4601256 0.2065023 0.1937005
0.4744339 0.2049255 0.2048098
0.4876734 0.2037332 0.2156527
0.4999962 0.2029226 0.2261773
0.5115276 0.2024618 0.2363414
0.5223719 0.2022851 0.24611
0.532617 0.2022924 0.2554555
0.5423379 0.2023515 0.2643572
0.5515991 0.2022912 0.2727971
0.5604568 0.2019045 0.2807615
0.5689609 0.2009272 0.2882353
0.5771556 0.1990249 0.2952036
0.5850816 0.1957374 0.3016455
0.5927765 0.1903919 0.3075341
0.6002765 0.1818987 0.31283
0.6076177 0.1682494 0.3174761
0.6148393 0.1449336 0.3213805
0.6219962 0.0969735 0.3243637
0.6291863 0 0.3260179
0.6364603 0 0.3259883
0.6438454 0 0.323846
0.6513652 0 0.3189127
0.6590419 0 0.3100155
0.6668972 0 0.2948698
0.6749536 0 0.2680987
0.6832343 0 0.2108082
0.691764 0 0
0.7005695 0 0
0.7096797 0 0
0.7191262 0 0
0.7289445 0 0
0.7391738 0 0
0.7498584 0 0
0.7610482 0 0
0.7728002 0 0
0.78518 0 0
0.7982631 0 0
0.8121376 0 0
0.8269066 0 0
0.8426922 0 0
0.8596401 0 0
0.8779256 0 0
0.8977621 0 0
0.9194125 0 0
0.9432047 0 0
0.0741676 0.277074 0.0915882
0.1032956 0.2767702 0.0916434
0.1661113 0.2757839 0.0933848
0.2218725 0.2743839 0.0987071
0.2670684 0.2727424 0.1070149
0.3046017 0.2710468 0.1166552
0.3362618 0.2690113 0.1271929
0.3634944 0.2667778 0.1381588
0.3872999 0.2644613 0.1493407
0.4083902 0.2621532 0.1606307
0.4272865 0.2599281 0.1719547
0.444381 0.2578459 0.183241
0.4599756 0.2559546 0.1944197
0.4743074 0.2542875 0.2054191
0.4875655 0.2528636 0.2161738
0.4999036 0.251685 0.2266272
0.5114474 0.2507364 0.2367325
0.5223021 0.249982 0.2464515
0.5325559 0.2493663 0.2557553
0.5422842 0.2488124 0.2646205
0.5515518 0.2482195 0.2730293
0.5604151 0.2474624 0.2809665
0.568924 0.2463815 0.2884166
0.577123 0.2447768 0.2953634
0.5850528 0.2423855 0.3017867
0.5927511 0.2388468 0.307658
0.6002542 0.2336347 0.3129381
0.6075983 0.2259143 0.3175699
0.6148227 0.2141867 0.3214604
0.6219823 0.195139 0.3244294
0.6291754 0.1585648 0.3260677
0.636452 0.0493566 0.3260215
0.6438398 0 0.3238597
0.651362 0 0.3189034
0.659041 0 0.3099754
0.6668985 0 0.2947818
0.6749569 0 0.2679168
0.6832397 0 0.2103221
0.6917713 0 0
0.7005787 0 0
0.7096906 0 0
0.7191389 0 0
0.7289589 0 0
0.73919 0 0
0.7498762 0 0
0.7610677 0 0
0.7728216 0 0
0.7852032 0 0
0.7982882 0 0
0.8121647 0 0
0.8269358 0 0
0.8427237 0 0
0.8596741 0 0
0.8779624 0 0
0.897802 0 0
0.9194558 0 0
0.9432521 0 0
0.0829842 0.3139215 0.1067858
0.1072103 0.3137521 0.106782
0.1654875 0.3131449 0.1075322
0.2206898 0.3121938 0.1105135
0.2661266 0.3110042 0.116062
0.3037404 0.3096297 0.1235682
0.3355871 0.3080912 0.1322881
0.3629625 0.3063194 0.1419559
0.3868751 0.3044158 0.1522273
0.4080456 0.3024638 0.162875
0.427003 0.3005305 0.1737391
0.4441448 0.2986688 0.1846885
0.4597765 0.2969192 0.1956141
0.4741379 0.2953102 0.2064177
0.4874201 0.2938592 0.2170184
0.4997777 0.2925718 0.2273485
0.5113379 0.2914413 0.2373529
0.5222063 0.2904481 0.2469885
0.5324719 0.2895596 0.2562222
0.5422102 0.2887281 0.2650278
0.5514864 0.2878916 0.2733862
0.5603572 0.2869699 0.2812798
0.5688727 0.2858621 0.2886922
0.5770776 0.2844411 0.2956058
0.5850127 0.2825446 0.3019996
0.5927158 0.279957 0.3078448
0.6002232 0.2763817 0.3131014
0.6075713 0.2713836 0.3177109
0.6147994 0.2642669 0.3215808
0.621963 0.2537028 0.3245284
0.6291601 0.23655 0.3261437
0.6364406 0.2059549 0.3260726
0.6438319 0.1350456 0.3238837
0.6513577 0 0.318894
0.6590399 0 0.3099217
0.6669005 0 0.2946606
0.6749618 0 0.2676625
0.6832473 0 0.209635
0.6917817 0 0
0.7005916 0 0
0.7097061 0 0
0.7191569 0 0
0.7289794 0 0
0.7392129 0 0
0.7499016 0 0
0.7610956 0 0
0.7728519 0 0
0.7852361 0 0
0.7983238 0 0
0.8122031 0 0
0.8269773 0 0
0.8427685 0 0
0.8597225 0 0
0.8780146 0 0
0.8978586 0 0
0.9195174 0 0
0.9433194 0 0
0.0900166 0.3451479 0.1206928
0.1109248 0.3450433 0.1206779
0.1651459 0.3446454 0.1210208
0.2194557 0.3439773 0.1227245
0.2649841 0.3431 0.1263865
0.3028122 0.3420536 0.1319172
0.3348356 0.3408621 0.138892
0.3623552 0.3394367 0.1471507
0.3863798 0.3378601 0.1563316
0.4076371 0.3362038 0.1661503
0.4266622 0.3345265 0.1763837
0.4438574 0.3328747 0.1868498
0.4595319 0.3312844 0.1973999
0.473928 0.3297815 0.2079091
0.4872386 0.3283825 0.2182753
0.4996199 0.3270954 0.2284161
0.5111998 0.3259186 0.2382656
0.5220851 0.3248418 0.247774
0.532365 0.3238448 0.2569015
0.5421157 0.3228975 0.2656183
0.5514027 0.3219589 0.2739008
0.5602829 0.3209763 0.2817298
0.5688068 0.3198816 0.2890861
0.5770192 0.3185908 0.2959514
0.5849609 0.3169958 0.3023027
0.5926701 0.3149574 0.3081102
0.600183 0.3122901 0.3133329
0.6075363 0.3087333 0.3179112
0.6147693 0.3038952 0.3217517
0.6219379 0.2970817 0.3246695
0.6291403 0.286815 0.3262531
0.6364258 0.2707246 0.3261488
0.6438219 0.2436447 0.3239225
0.6513521 0.1882326 0.3188888
0.6590386 0 0.309857
0.6669032 0 0.2945058
0.6749684 0 0.2673314
0.6832576 0 0.2087278
0.6917956 0 0
0.7006089 0 0
0.7097267 0 0
0.7191808 0 0
0.7290065 0 0
0.7392432 0 0
0.7499351 0 0
0.7611324 0 0
0.772892 0 0
0.7852797 0 0
0.798371 0 0
0.812254 0 0
0.8270322 0 0
0.8428277 0 0
0.8597864 0 0
0.8780837 0 0
0.8979335 0 0
0.919599 0 0
0.9434085 0 0
0.0959399 0.372108 0.1337562
0.1144469 0.3720381 0.1337434
0.1651181 0.3717623 0.1339155
0.2183098 0.371276 0.1349323
0.263767 0.3706126 0.1373779
0.3017456 0.3698002 0.1414202
0.3339232 0.3688588 0.1469069
0.3616865 0.3678031 0.1535471
0.3858256 0.3664685 0.1615833
0.4071739 0.3650402 0.170463
0.4262713 0.363569 0.179938
0.4435245 0.3620955 0.1897959
0.4592462 0.3606519 0.1998564
0.473681 0.3592616 0.2099712
0.4870236 0.3579407 0.2200174
0.4994318 0.3566979 0.2298963
0.5110346 0.3555349 0.2395303
0.5219393 0.3544465 0.2488602
0.5322359 0.3534204 0.2578386
0.5420012 0.3524367 0.2664302
0.551301 0.3514676 0.2746068
0.5601925 0.3504765 0.2823453
0.5687264 0.3494165 0.2896244
0.5769477 0.3482287 0.2964228
0.5848975 0.3468377 0.3027149
0.592614 0.3451488 0.3084704
0.6001337 0.3430362 0.3136469
0.6074932 0.34033 0.3181832
0.6147323 0.3367824 0.3219841
0.6219071 0.331973 0.3248622
0.629116 0.3250555 0.3264045
0.6364078 0.314879 0.3262567
0.6438098 0.2994669 0.3239825
0.6513456 0.2745271 0.3188917
0.6590373 0.2270315 0.3097858
0.666907 0.0201933 0.2943196
0.674977 0 0.2669238
0.6832708 0 0.2075864
0.6918132 0 0
0.7006309 0 0
0.7097528 0 0
0.719211 0 0
0.7290408 0 0
0.7392815 0 0
0.7499775 0 0
0.7611789 0 0
0.7729428 0 0
0.7853348 0 0
0.7984305 0 0
0.8123183 0 0
0.8271016 0 0
0.8429025 0 0
0.8598671 0 0
0.878171 0 0
0.8980281 0 0
0.9197019 0 0
0.943521 0 0
0.101291 0.3957387 0.1462617
0.1179383 0.3956891 0.1462546
0.1654513 0.3954887 0.1463561
0.2173605 0.3951231 0.1470003
0.2625832 0.3946087 0.1486767
0.3006284 0.3939651 0.1516505
0.3329248 0.3932078 0.1559393
0.3607948 0.3923491 0.1614003
0.3852226 0.3913997 0.1678244
0.406664 0.3901438 0.1757356
0.4258367 0.388834 0.1843818
0.4431515 0.3875059 0.1935408
0.4589236 0.386188 0.2030193
0.4734002 0.3849019 0.2126495
0.486778 0.3836625 0.2222932
0.4992158 0.3824792 0.2318385
0.5108439 0.3813554 0.2411944
0.5217704 0.380289 0.2502911
0.532086 0.3792725 0.2590739
0.5418678 0.3782924 0.2675008
0.5511821 0.3773294 0.2755371
0.5600865 0.3763573 0.2831562
0.5686319 0.3753425 0.2903325
0.5768635 0.3742424 0.2970423
0.5848227 0.3730026 0.3032569
0.5925478 0.3715552 0.3089442
0.6000753 0.3698111 0.3140599
0.6074423 0.3676518 0.3185409
0.6146884 0.3649092 0.3222908
0.6218707 0.3613041 0.3251184
0.6290874 0.3562948 0.3266076
0.6363866 0.3492152 0.3264046
0.6437957 0.3390653 0.3240707
0.6513382 0.3240566 0.3189096
0.6590363 0.3003961 0.3097116
0.666912 0.257239 0.2941052
0.6749878 0.119245 0.2664367
0.6832872 0 0.2061933
0.6918349 0 0
0.7006578 0 0
0.7097849 0 0
0.719248 0 0
0.7290828 0 0
0.7393284 0 0
0.7500293 0 0
0.7612357 0 0
0.7730047 0 0
0.7854019 0 0
0.7985032 0 0
0.8123968 0 0
0.8271862 0 0
0.8429939 0 0
0.8599656 0 0
0.8782775 0 0
0.8981437 0 0
0.9198277 0 0
0.9436586 0 0
0.1064918 0.4167135 0.1583805
0.1215998 0.4166767 0.1583788
0.1662101 0.4165254 0.1584513
0.2166947 0.4162423 0.1588902
0.2615216 0.4158346 0.1600803
0.2995366 0.4153151 0.1623013
0.331902 0.4146956 0.1656613
0.3598552 0.4139862 0.1701258
0.3843572 0.4131958 0.1755717
0.4061147 0.4123328 0.181835
0.4253648 0.4111491 0.1896344
0.4427431 0.4099381 0.1980471
0.4585682 0.4087255 0.2068788
0.4730892 0.4075308 0.2159542
0.4865044 0.4063682 0.225127
0.4989742 0.4052469 0.2342714
0.5106298 0.4041714 0.2432894
0.52158 0.4031417 0.2520996
0.5319164 0.4021531 0.2606395
0.5417164 0.4011966 0.2688598
0.5510469 0.4002583 0.27672
0.5599657 0.3993192 0.2841884
0.5685239 0.3983541 0.2912344
0.5767672 0.3973317 0.297831
0.5847369 0.3962116 0.3039478
0.5924717 0.394943 0.3095488
0.6000083 0.3934608 0.3145872
0.6073837 0.3916788 0.318999
0.614638 0.3894765 0.3226847
0.6218289 0.3866572 0.3254484
0.6290546 0.3828496 0.3268718
0.6363625 0.3776256 0.326602
0.6437799 0.370393 0.3241951
0.6513302 0.3602078 0.3189491
0.6590357 0.3453851 0.3096402
0.6669185 0.3223995 0.2938668
0.6750012 0.2815056 0.2658729
0.683307 0.1648348 0.204536
0.6918611 0 0
0.7006901 0 0
0.7098232 0 0
0.7192923 0 0
0.7291329 0 0
0.7393843 0 0
0.750091 0 0
0.7613034 0 0
0.7730785 0 0
0.785482 0 0
0.7985898 0 0
0.8124903 0 0
0.827287 0 0
0.8431026 0 0
0.8600829 0 0
0.8784045 0 0
0.8982813 0 0
0.9199775 0 0
0.9438223 0 0
0.1118514 0.4355313 0.1702003
0.1256131 0.4355029 0.1702023
0.167464 0.4353849 0.1702642
0.2163819 0.4351603 0.1705866
0.2606525 0.4348308 0.1714646
0.2985327 0.4344046 0.1731559
0.3309075 0.4338904 0.1758085
0.3589114 0.4332963 0.1794559
0.3834702 0.4326298 0.1840442
0.4052805 0.4318978 0.1894656
0.424861 0.4311069 0.1955829
0.4423044 0.4299909 0.2032388
0.458184 0.428866 0.2113899
0.4727512 0.4277502 0.2198647
0.4862058 0.4266568 0.2285119
0.4987094 0.4255948 0.2372026
0.5103942 0.4245694 0.2458293
0.52137 0.4235816 0.2543033
0.5317287 0.4226292 0.2625556
0.5415484 0.4217057 0.2705286
0.5508964 0.4208011 0.278177
0.5598309 0.4199012 0.2854617
0.5684033 0.4189871 0.2923495
0.5766593 0.4180349 0.2988085
0.5846408 0.4170138 0.3048049
0.5923863 0.4158854 0.3102998
0.5999329 0.4146001 0.3152441
0.6073178 0.4130932 0.3195702
0.6145812 0.4112755 0.3231773
0.621782 0.4090022 0.3258635
0.629018 0.4060078 0.3272083
0.6363359 0.4019964 0.326857
0.6437626 0.3965815 0.3243636
0.6513218 0.3891904 0.3190171
0.6590359 0.3789032 0.3095787
0.6669269 0.3640779 0.2936085
0.6750174 0.341298 0.2652341
0.6833308 0.3012392 0.2025961
0.6918921 0.1915195 0
0.7007282 0 0
0.7098682 0 0
0.7193441 0 0
0.7291915 0 0
0.7394497 0 0
0.7501632 0 0
0.7613824 0 0
0.7731646 0 0
0.7855754 0 0
0.7986909 0 0
0.8125994 0 0
0.8274047 0 0
0.8432295 0 0
0.8602201 0 0
0.8785527 0 0
0.898442 0 0
0.9201524 0 0
0.9440136 0 0
0.1175729 0.4525703 0.181755
0.130111 0.4525478 0.1817607
0.1692715 0.4524535 0.181818
0.2164756 0.4522717 0.1820705
0.2600304 0.4520008 0.1827441
0.2976669 0.4516461 0.1840599
0.3299846 0.4512139 0.1861759
0.358 0.4507105 0.1891638
0.382593 0.4501421 0.1930203
0.4044425 0.4495148 0.197683
0.4240616 0.4488337 0.2030547
0.4418397 0.4481043 0.2090174
0.4577749 0.4470532 0.2164819
0.4723894 0.4460054 0.2243323
0.4858848 0.4449735 0.2324208
0.4984237 0.4439665 0.2406169
0.5101392 0.4429895 0.2488104
0.5211418 0.4420448 0.2569067
0.5315242 0.4411311 0.2648307
0.5413649 0.4402445 0.2725194
0.5507317 0.4393774 0.2799206
0.559683 0.4385192 0.2869918
0.5682707 0.4376552 0.2936928
0.5765406 0.436767 0.2999889
0.5845348 0.4358307 0.3058425
0.5922921 0.4348164 0.3112108
0.5998497 0.4336859 0.3160427
0.607245 0.4323891 0.3202671
0.6145186 0.4308584 0.3237802
0.6217304 0.4289842 0.3263741
0.628978 0.4265705 0.3276251
0.6363069 0.4234031 0.3271791
0.6437442 0.4192115 0.3245841
0.6513135 0.4136158 0.3191204
0.6590371 0.406047 0.3095316
0.6669374 0.3955852 0.2933355
0.6750367 0.3805835 0.2645212
0.6833586 0.3576034 0.2003543
0.6919283 0.3172218 0
0.7007724 0.2057859 0
0.7099203 0 0
0.719404 0 0
0.729259 0 0
0.7395249 0 0
0.7502463 0 0
0.7614734 0 0
0.7732636 0 0
0.7856828 0 0
0.798807 0 0
0.8127248 0 0
0.82754 0 0
0.8433754 0 0
0.8603777 0 0
0.8787231 0 0
0.8986269 0 0
0.9203536 0 0
0.9442337 0 0
0.1237594 0.4681244 0.1930456
0.1351596 0.4681061 0.1930533
0.171666 0.4680292 0.1931088
0.2170125 0.4678792 0.1933175
0.2596946 0.4676534 0.1938514
0.2969764 0.4673546 0.1948973
0.3291672 0.4669872 0.1966056
0.3571509 0.4665565 0.1990656
0.3817512 0.4660673 0.202306
0.4036234 0.4655247 0.2063028
0.4232705 0.4649333 0.2109905
0.4410779 0.4642975 0.2162799
0.4573442 0.4636213 0.2220689
0.4720069 0.4626328 0.2292931
0.485544 0.4616558 0.2368062
0.4981191 0.4606988 0.2444836
0.5098664 0.4597676 0.2522128
0.520897 0.4588648 0.2598993
0.5313043 0.4579903 0.267462
0.5411672 0.4571415 0.2748336
0.5505538 0.4563129 0.2819572
0.5595231 0.4554964 0.2887852
0.568127 0.4546807 0.2952737
0.5764118 0.4538511 0.3013823
0.5844197 0.452989 0.3070704
0.5921896 0.4520707 0.3122925
0.5997592 0.4510662 0.3169933
0.6071658 0.4499362 0.3210991
0.6144505 0.4486282 0.3245028
0.6216744 0.4470577 0.3269888
0.6289348 0.4450773 0.328131
0.6362759 0.4425263 0.3275755
0.6437249 0.4392056 0.3248632
0.6513055 0.4348468 0.319265
0.6590399 0.4290677 0.3095041
0.6669503 0.4212905 0.2930511
0.6750594 0.410575 0.2637341
0.683391 0.395223 0.1977785
0.6919698 0.3716516 0
0.700823 0.3298446 0
0.7099797 0.2079237 0
0.7194722 0 0
0.7293359 0 0
0.7396105 0 0
0.7503406 0 0
0.7615767 0 0
0.773376 0 0
0.7858047 0 0
0.7989389 0 0
0.8128671 0 0
0.8276935 0 0
0.8435411 0 0
0.8605565 0 0
0.8789166 0 0
0.8988368 0 0
0.9205821 0 0
0.9444836 0 0
0.1304274 0.4824251 0.2040554
0.1407619 0.48241 0.2040642
0.1746503 0.482346 0.2041184
0.2180085 0.4822206 0.2042968
0.2596702 0.4820301 0.2047328
0.2964881 0.4817756 0.20558
0.3284801 0.4814605 0.2069743
0.3563866 0.4810887 0.209012
0.3809652 0.4806644 0.2117399
0.4028412 0.4801917 0.2151598
0.4225039 0.4796744 0.2192343
0.4403323 0.4791163 0.2239006
0.456622 0.4785209 0.2290761
0.4716062 0.4778916 0.2346691
0.4851855 0.4769638 0.2416093
0.4977977 0.4760528 0.2487569
0.5095777 0.4751643 0.2560052
0.5206373 0.4743016 0.2632585
0.5310703 0.4734652 0.2704349
0.5409564 0.4726538 0.2774629
0.5503638 0.4718633 0.2842831
0.5593519 0.4710875 0.2908423
0.567973 0.4703177 0.2970937
0.5762735 0.4695421 0.3029926
0.5842959 0.468746 0.3084948
0.5920795 0.4679104 0.3135507
0.5996618 0.4670113 0.3181022
0.6070806 0.4660177 0.3220728
0.6143773 0.4648882 0.3253515
0.6216145 0.4635569 0.327714
0.6288888 0.4619116 0.3287323
0.6362434 0.4598283 0.3280515
0.6437053 0.4571553 0.3252065
0.6512981 0.4536936 0.3194562
0.6590443 0.4491709 0.309501
0.666966 0.4431954 0.2927574
0.675086 0.4351697 0.2628698
0.6834281 0.4241113 0.1948356
0.6920172 0.4082249 0
0.7008804 0.3836492 0
0.7100469 0.3391874 0
0.7195491 0.1922318 0
0.7294225 0 0
0.7397068 0 0
0.7504467 0 0
0.7616927 0 0
0.7735024 0 0
0.7859417 0 0
0.799087 0 0
0.813027 0 0
0.827866 0 0
0.8437271 0 0
0.8607573 0 0
0.8791339 0 0
0.8990725 0 0
0.9208388 0 0
0.9447645 0 0
0.1375198 0.4956582 0.2147589
0.1468627 0.4956455 0.2147683
0.1781904 0.4955916 0.2148211
0.21946 0.4954855 0.2149773
0.2599671 0.495323 0.2153412
0.2962173 0.4951044 0.2160387
0.3279402 0.4948319 0.2171903
0.3557232 0.4945087 0.2188882
0.3802499 0.4941381 0.2211909
0.4021098 0.4937236 0.2241159
0.4217745 0.4932684 0.2276502
0.4396146 0.4927758 0.2317493
0.4559211 0.4922487 0.2363521
0.470925 0.4916901 0.2413827
0.4848115 0.4911024 0.2467621
0.4974612 0.4902336 0.2533839
0.5092744 0.4893852 0.2601448
0.5203637 0.4885605 0.2669528
0.5308233 0.4877608 0.2737255
0.5407333 0.4869856 0.2803914
0.5501624 0.4862322 0.2868872
0.5591703 0.4854957 0.2931568
0.5678093 0.4847692 0.29915
0.5761264 0.4840436 0.3048194
0.5841642 0.4833069 0.3101162
0.5919621 0.4825439 0.3149881
0.599558 0.4817352 0.3193735
0.6069899 0.4808561 0.3231929
0.6142994 0.4798734 0.3263309
0.621551 0.4787359 0.3285542
0.6288405 0.4773578 0.3294333
0.6362097 0.475641 0.3286116
0.6436856 0.4734666 0.3256176
0.6512917 0.470682 0.3196975
0.6590508 0.4670841 0.3095251
0.6669848 0.4623925 0.2924554
0.6751168 0.4561986 0.2619239
0.6834703 0.4478739 0.1914729
0.6920706 0.436371 0
0.7009448 0.4197423 0
0.7101222 0.3936857 0
0.7196351 0.344999 0
0.7295191 0.1274901 0
0.7398142 0 0
0.750565 0 0
0.761822 0 0
0.773643 0 0
0.7860941 0 0
0.7992518 0 0
0.8132049 0 0
0.8280578 0 0
0.8439341 0 0
0.8609809 0 0
0.8793757 0 0
0.8993349 0 0
0.9211246 0 0
0.9450772 0 0
0.1449368 0.5079748 0.2251316
0.1533641 0.507964 0.2251413
0.1822226 0.5079182 0.2251912
0.2213415 0.5078274 0.2253302
0.2605814 0.5076876 0.2256389
0.2961694 0.5074984 0.2262214
0.3275563 0.5072611 0.2271812
0.3551709 0.5069784 0.2286057
0.3796155 0.5066529 0.230555
0.4014387 0.5062875 0.2330597
0.4210916 0.505885 0.2361203
0.4389335 0.5054481 0.2397117
0.4552498 0.5049794 0.2437888
0.4702683 0.5044814 0.2482928
0.4841723 0.5039562 0.2531545
0.4971112 0.5034058 0.2583042
0.5089582 0.5025949 0.2645823
0.5200777 0.5018062 0.2709423
0.5305645 0.5010418 0.2773035
0.5404991 0.5003016 0.2835948
0.5499505 0.4995838 0.289751
0.5589788 0.4988849 0.2957151
0.5676366 0.4981995 0.3014341
0.575971 0.4975203 0.3068562
0.5840249 0.4968377 0.3119309
0.5918379 0.4961393 0.3166027
0.5994482 0.4954096 0.3208064
0.6068939 0.4946285 0.3244592
0.6142172 0.4937697 0.327442
0.6214844 0.4927933 0.3295114
0.6287902 0.4916335 0.3302356
0.6361752 0.4902118 0.329258
0.6436661 0.4884325 0.3260988
0.6512868 0.4861754 0.3199893
0.6590596 0.4832841 0.3095759
0.6670071 0.4795488 0.2921423
0.6751519 0.4746758 0.260888
0.683518 0.4682335 0.1876249
0.6921305 0.4595484 0
0.7010167 0.447481 0
0.7102058 0.4298647 0
0.7197305 0.4017331 0
0.7296262 0.3465511 0
0.7399329 0 0
0.7506956 0 0
