release/datafiles/colormanagement/luts/Inverse_AgX_Base_Rec2020.cube
TITLE "Inverse AgX_Formation Rec.2020"
# Inverse of AgX Base Rec.2020 Formation LUT
# This LUT expects input to be Rec.2020 power 2.4, output to be Rec.2020 Log2 from -10 stops to +6.5 stops
DOMAIN_MIN 0 0 0
DOMAIN_MAX 1 1 1
LUT_3D_SIZE 5
0 0 0
0.4877873 0.0736869 0.2152098
0.6148563 0 0.3213044
0.7289301 0 0
0.9431571 0 0
0.1375198 0.4956582 0.2147589
0.4848115 0.4911024 0.2467621
0.6142994 0.4798734 0.3263309
0.7295191 0.1274901 0
0.9450772 0 0
0.2081656 0.6225559 0.3230776
0.4780104 0.6216637 0.327519
0.6127789 0.619178 0.349149
0.7320556 0.6208835 0
0.9533079 0 0
0 0.7344778 0
0.3979245 0.7351736 0
0.618196 0.7382915 0
0.7355354 0.7427507 0
0.9702108 0.7873324 0
0 0.9384931 0
0 0.9408206 0
0 0.9508569 0
0.7905069 0.9717737 0
0.9941043 1 0
0 0 0.4851061
0.4853236 0 0.4830035
0.6143635 0 0.4829768
0.7288919 0 0.4288673
0.9434181 0 0
0 0.4869815 0.4837772
0.4823972 0.4823972 0.4823972
0.6137961 0.4716265 0.4835596
0.7296358 0 0.3883576
0.9454389 0 0
0.1408909 0.6208247 0.484481
0.4765504 0.6199007 0.4848607
0.6123185 0.6175184 0.4847983
0.7321856 0.6154227 0.3231922
0.9537172 0 0
0 0.7340582 0.4635336
0.3394301 0.7349923 0.4408564
0.6144518 0.7381535 0.4046061
0.735564 0.742512 0
0.9706484 0.7779639 0
0 0.9386632 0
0 0.9411575 0
0 0.9512564 0
0.7834497 0.9722096 0
0.9944616 1 0
0 0 0.6112693
0.4742477 0 0.6106754
0.6124984 0 0.6101526
0.7287061 0 0.6189854
0.9444814 0 0
0 0.4448023 0.6108813
0.4739969 0.4428405 0.6103124
0.6119505 0.4253412 0.6100796
0.7294573 0 0.6158509
0.9465273 0 0
0 0.6139314 0.6106963
0.4674398 0.6130116 0.6104354
0.6104671 0.6104671 0.6104671
0.7328077 0.5820837 0.5954326
0.9553901 0 0
0 0.7322213 0.6220967
0.2227413 0.7331736 0.6193455
0.5925518 0.7376395 0.6010593
0.735619 0.7412885 0.575942
0.9725126 0.7178454 0
0 0.9392445 0.4100432
0 0.9417974 0
0 0.9528556 0
0.743507 0.9740477 0
0.9959834 1 0
0 0 0.7152649
0.4514211 0 0.7159166
0.6212129 0 0.719251
0.7277438 0 0.7252247
0.946412 0 0.7859563
0 0 0.7158011
0.4336332 0 0.7166217
0.6185687 0 0.7200789
0.728459 0 0.7260521
0.9484811 0 0.7803443
0 0.6072351 0.7184771
0.4015965 0.6033336 0.7194215
0.6021665 0.5779564 0.7240119
0.7315883 0.520049 0.7296544
0.9574711 0 0.7467413
0 0.7267984 0.7233813
0 0.7276294 0.7243712
0.5801625 0.7314121 0.7287974
0.7341762 0.7341762 0.7341762
0.9762472 0 0
0 0.939807 0.7911522
0 0.9423963 0.7872193
0 0.9536856 0.7649621
0 0.977507 0.4059618
0.9989642 1 0
0 0 0.8892814
0 0 0.8912645
0.6439541 0 0.8998871
0.7931174 0 0.9179707
0.9477586 0 0.9450058
0 0 0.8908385
0 0 0.892992
0.6183903 0 0.9017374
0.7898465 0 0.919941
0.9498074 0 0.9470627
0 0 0.8975714
0 0 0.8998369
0 0 0.9096304
0.7734302 0 0.9284703
0.9587167 0 0.9560093
0 0.7683831 0.9115408
0 0.7630204 0.9139284
0 0.7337181 0.9243321
0.6886532 0 0.9462319
0.9773265 0 0.9747666
0 0.9359183 0.9322434
0 0.9384003 0.934738
0 0.949253 0.9456442
0 0.972156 0.9687436
1 1 1
